assets/images/icons/osk-exponent-3.svg

<?xml version="1.0" encoding="UTF-8" standalone="no"?>
<svg width="48px" height="48px" viewBox="0 0 48 48" version="1.1" xmlns="http://www.w3.org/2000/svg" xmlns:xlink="http://www.w3.org/1999/xlink">
    <!-- Generator: sketchtool 39.1 (31720) - http://www.bohemiancoding.com/sketch -->
    <title>AFB00068-CF58-4234-981A-27B3D3522C77</title>
    <desc>Created with sketchtool.</desc>
    <defs>
        <rect id="path-1" x="0" y="0" width="600" height="956" fill="none"></rect>
    </defs>
    <g id="Page-1" stroke="none" stroke-width="1" fill="none" fill-rule="evenodd">
        <g id="Math-Input" transform="translate(-634.000000, -1750.000000)"></g>
        <g id="Asset-Sheet" transform="translate(-434.000000, -654.000000)">
            <g id="math_keypad_icon_exponent_3" transform="translate(434.000000, 654.000000)">
                <g id="icon">
                    <rect id="bounds" fill-opacity="0" fill="#FF0088" x="0" y="0" width="48" height="48"></rect>
                    <path d="M14,21.0008717 C14,20.4481055 14.455761,20 15.0024733,20 L24.9975267,20 C25.5511774,20 26,20.4446309 26,21.0008717 L26,34.9991283 C26,35.5518945 25.544239,36 24.9975267,36 L15.0024733,36 C14.4488226,36 14,35.5553691 14,34.9991283 L14,21.0008717 Z M16,22 L24,22 L24,34 L16,34 L16,22 Z" id="block" fill="#3B3E40"></path>
                    <path d="M30.92,23.12 C32.58,23.12 33.68,22.31 33.68,21.14 C33.68,20.18 32.82,19.63 32.11,19.56 C32.9,19.43 33.57,18.84 33.57,18.06 C33.57,16.96 32.62,16.23 30.92,16.23 C29.69,16.23 28.81,16.68 28.25,17.31 L29.08,18.39 C29.55,17.97 30.13,17.75 30.74,17.75 C31.38,17.75 31.86,17.94 31.86,18.36 C31.86,18.71 31.47,18.88 30.78,18.88 C30.53,18.88 30.01,18.88 29.88,18.87 L29.88,20.4 C29.98,20.39 30.49,20.39 30.78,20.39 C31.69,20.39 31.97,20.57 31.97,20.95 C31.97,21.32 31.59,21.6 30.85,21.6 C30.27,21.6 29.51,21.37 29.03,20.9 L28.16,22.07 C28.68,22.67 29.64,23.12 30.92,23.12 L30.92,23.12 Z" id="3" fill="#3B3E40"></path>
                </g>
            </g>
        </g>
        <g id="Math-Input" transform="translate(-634.000000, -1750.000000)">
            <g id="Asset-Sheet" transform="translate(200.000000, 1096.000000)">
                <mask id="mask-2" fill="white">
                    <use xlink:href="#path-1"></use>
                </mask>
                <use id="Mask" fill="#FAFAFA" xlink:href="#path-1"></use>
                <g id="math_keypad_icon_exponent_3" mask="url(#mask-2)">
                    <g transform="translate(434.000000, 654.000000)" id="icon">
                        <g>
                            <rect id="bounds" fill-opacity="0" fill="#FF0088" x="0" y="0" width="48" height="48"></rect>
                            <path d="M14,21.0008717 C14,20.4481055 14.455761,20 15.0024733,20 L24.9975267,20 C25.5511774,20 26,20.4446309 26,21.0008717 L26,34.9991283 C26,35.5518945 25.544239,36 24.9975267,36 L15.0024733,36 C14.4488226,36 14,35.5553691 14,34.9991283 L14,21.0008717 Z M16,22 L24,22 L24,34 L16,34 L16,22 Z" id="block" fill="#3B3E40"></path>
                            <path d="M30.92,23.12 C32.58,23.12 33.68,22.31 33.68,21.14 C33.68,20.18 32.82,19.63 32.11,19.56 C32.9,19.43 33.57,18.84 33.57,18.06 C33.57,16.96 32.62,16.23 30.92,16.23 C29.69,16.23 28.81,16.68 28.25,17.31 L29.08,18.39 C29.55,17.97 30.13,17.75 30.74,17.75 C31.38,17.75 31.86,17.94 31.86,18.36 C31.86,18.71 31.47,18.88 30.78,18.88 C30.53,18.88 30.01,18.88 29.88,18.87 L29.88,20.4 C29.98,20.39 30.49,20.39 30.78,20.39 C31.69,20.39 31.97,20.57 31.97,20.95 C31.97,21.32 31.59,21.6 30.85,21.6 C30.27,21.6 29.51,21.37 29.03,20.9 L28.16,22.07 C28.68,22.67 29.64,23.12 30.92,23.12 L30.92,23.12 Z" id="3" fill="#3B3E40"></path>
                        </g>
                    </g>
                </g>
            </g>
        </g>
    </g>
</svg>

<svg xmlns="http://www.w3.org/2000/svg" xmlns:xlink="http://www.w3.org/1999/xlink" width="48" height="48" xmlns:v="https://vecta.io/nano"><defs><path id="A" fill="none" d="M0 0h600v956H0z"/><path id="B" d="M14 21.001c0-.553.456-1.001 1.002-1.001h9.995A1 1 0 0 1 26 21.001v13.998c0 .553-.456 1.001-1.002 1.001h-9.995A1 1 0 0 1 14 34.999V21.001zM16 22h8v12h-8V22z"/><path id="C" d="M30.92 23.12c1.66 0 2.76-.81 2.76-1.98 0-.96-.86-1.51-1.57-1.58.79-.13 1.46-.72 1.46-1.5 0-1.1-.95-1.83-2.65-1.83-1.23 0-2.11.45-2.67 1.08l.83 1.08a2.47 2.47 0 0 1 1.66-.64c.64 0 1.12.19 1.12.61 0 .35-.39.52-1.08.52-.25 0-.77 0-.9-.01v1.53c.1-.01.61-.01.9-.01.91 0 1.19.18 1.19.56 0 .37-.38.65-1.12.65-.58 0-1.34-.23-1.82-.7l-.87 1.17c.52.6 1.48 1.05 2.76 1.05h0z"/></defs><g fill="none" fill-rule="evenodd"><path fill-opacity="0" fill="#f08" d="M0 0h48v48H0z"/><g fill="#3b3e40"><use xlink:href="#B"/><use xlink:href="#C"/></g><g transform="translate(-434 -654)"><mask id="D" fill="#fff"><use xlink:href="#A"/></mask><use fill="#fafafa" xlink:href="#A"/><g mask="url(#D)"><g transform="translate(434 654)"><path fill-opacity="0" fill="#f08" d="M0 0h48v48H0z"/><g fill="#3b3e40"><use xlink:href="#B"/><use xlink:href="#C"/></g></g></g></g></g></svg>
